elementary-icon-theme/elementary/notifications/48/notification-network-wireless-full.svg

<?xml version="1.0" encoding="UTF-8" standalone="no"?>
<!-- Created with Inkscape (http://www.inkscape.org/) -->

<svg
   xmlns:svg="http://www.w3.org/2000/svg"
   xmlns="http://www.w3.org/2000/svg"
   xmlns:xlink="http://www.w3.org/1999/xlink"
   version="1.1"
   width="48"
   height="48"
   id="svg4641">
  <defs
     id="defs4643">
    <radialGradient
       cx="-0.1875"
       cy="-0.43750006"
       r="24.1875"
       fx="-0.1875"
       fy="-0.43750006"
       id="radialGradient4437"
       xlink:href="#linearGradient2867-449-88-871-390-598-476-591-434-148-7"
       gradientUnits="userSpaceOnUse"
       gradientTransform="matrix(0,1.6796578,-2.8677383,0,-1.4421357,7.2524358)" />
    <linearGradient
       id="linearGradient2867-449-88-871-390-598-476-591-434-148-7">
      <stop
         id="stop4627-7"
         style="stop-color:#51cfee;stop-opacity:1"
         offset="0" />
      <stop
         id="stop4629-6"
         style="stop-color:#49a3d2;stop-opacity:1"
         offset="0.26238" />
      <stop
         id="stop4631-4"
         style="stop-color:#3470b4;stop-opacity:1"
         offset="0.704952" />
      <stop
         id="stop4633-3"
         style="stop-color:#1b5699;stop-opacity:1"
         offset="1" />
    </linearGradient>
  </defs>
  <g
     id="layer1">
    <path
       d="m 28.574733,35.052298 c -0.200831,0.173216 -4.633541,4.881645 -4.633541,4.881645 0,0 -4.390501,-4.748218 -4.55523,-4.881645 0.294385,-0.221168 1.495905,-1.090918 4.564801,-1.078514 3.019728,0.01221 4.393969,0.864131 4.62397,1.078514 z"
       id="path2538"
       style="opacity:0.98000004;fill:#2a65a9;fill-opacity:1;fill-rule:evenodd;stroke:none;overflow:visible" />
    <path
       d="m 19.771867,35.411037 c 0,0 0.882573,-0.905917 4.151612,-0.905917 3.289188,0 4.317341,0.948559 4.317341,0.948559 M 13.857849,29.336821 c 0,0 2.455163,-3.353962 10.042693,-3.353962 7.634297,0 10.02067,3.300745 10.02067,3.300745 M 8.142898,22.810993 c 0,0 4.960959,-5.34479 15.735941,-5.34479 10.829534,0 15.884636,5.396245 15.884636,5.396245 M 2.050198,16.326623 c 0,0 6.935206,-7.8575636 21.788114,-7.8575636 14.928106,0 22.083333,7.8575636 22.083333,7.8575636"
       id="path3366"
       style="opacity:0.4;fill:none;stroke:#ffffff;stroke-width:1.00000012;stroke-linecap:butt;stroke-linejoin:miter;stroke-miterlimit:4;stroke-opacity:1;stroke-dasharray:none" />
    <path
       d="m 24,33.5625 c -1.825008,0 -3.533225,0.511829 -5,1.375 l 5,5 5,-5 c -1.466775,-0.863171 -3.174992,-1.375 -5,-1.375 z m 0,-9 c -4.319439,0 -8.287857,1.465195 -11.46875,3.90625 L 16.5,32.4375 c 2.118639,-1.408997 4.639863,-2.25 7.375,-2.25 2.801299,0 5.382548,0.871674 7.53125,2.34375 l 4.0625,-4.0625 C 32.287857,26.027695 28.319439,24.5625 24,24.5625 z m 0,-8.5 c -6.669872,0 -12.782201,2.379554 -17.53125,6.34375 l 3.5625,3.5625 C 13.862539,22.895853 18.70653,21.0625 24,21.0625 c 5.29347,0 10.137461,1.833353 13.96875,4.90625 l 3.5625,-3.5625 C 36.782201,18.442054 30.669872,16.0625 24,16.0625 z m 0,-8.5 c -9.017927,0 -17.2595729,3.318534 -23.5625,8.8125 L 4,19.9375 c 5.3894961,-4.591963 12.364658,-7.375 20,-7.375 7.635342,0 14.610504,2.783037 20,7.375 L 47.5625,16.375 C 41.259573,10.881034 33.017927,7.5625 24,7.5625 z"
       id="path4112-19-69-3"
       style="color:#000000;fill:url(#radialGradient4437);fill-opacity:1;stroke:#404040;stroke-width:1;stroke-linecap:butt;stroke-linejoin:round;stroke-miterlimit:4;stroke-opacity:1;stroke-dasharray:none;stroke-dashoffset:0.06;marker:none;visibility:visible;display:inline;overflow:visible;enable-background:accumulate" />
    <path
       d="m 20.336983,35.583836 c 0.384711,-0.466444 2.433147,-0.922438 3.638147,-0.889181 1.205001,0.03326 3.427803,0.407204 3.711395,0.813563"
       id="path4112-19-69-3-3"
       style="opacity:0.4;color:#000000;fill:none;stroke:#ffffff;stroke-width:1.25;stroke-linecap:butt;stroke-linejoin:round;stroke-miterlimit:4;stroke-opacity:1;stroke-dasharray:none;stroke-dashoffset:0.06;marker:none;visibility:visible;display:inline;overflow:visible;enable-background:accumulate" />
    <path
       d="m 13.810897,28.980393 c 2.818544,-2.170744 6.601374,-3.298065 10.189102,-3.247102 3.550147,-0.05043 7.371839,1.014573 10.171836,3.258922"
       id="path4112-19-69-3-3-8"
       style="opacity:0.4;color:#000000;fill:none;stroke:#ffffff;stroke-width:1.25;stroke-linecap:butt;stroke-linejoin:round;stroke-miterlimit:4;stroke-opacity:1;stroke-dasharray:none;stroke-dashoffset:0.06;marker:none;visibility:visible;display:inline;overflow:visible;enable-background:accumulate" />
    <path
       d="M 7.6628454,22.852524 C 12.03966,19.441861 17.73446,17.273692 23.325584,17.208435 29.33951,16.969821 35.68471,19.153624 40.332076,22.909368"
       id="path4112-19-69-3-3-9"
       style="opacity:0.4;color:#000000;fill:none;stroke:#ffffff;stroke-width:1.25;stroke-linecap:butt;stroke-linejoin:round;stroke-miterlimit:4;stroke-opacity:1;stroke-dasharray:none;stroke-dashoffset:0.06;marker:none;visibility:visible;display:inline;overflow:visible;enable-background:accumulate" />
    <path
       d="M 1.6103148,16.854416 C 7.54246,11.931909 15.339742,8.8431478 23.107428,8.7524871 31.31633,8.4294115 40.057059,11.477847 46.366702,16.857607"
       id="path4112-19-69-3-3-9-7"
       style="opacity:0.4;color:#000000;fill:none;stroke:#ffffff;stroke-width:1.25;stroke-linecap:butt;stroke-linejoin:round;stroke-miterlimit:4;stroke-opacity:1;stroke-dasharray:none;stroke-dashoffset:0.06;marker:none;visibility:visible;display:inline;overflow:visible;enable-background:accumulate" />
  </g>
</svg>

<?xml version="1.0" encoding="UTF-8" standalone="no"?>
<!-- Created with Inkscape (http://www.inkscape.org/) -->
<svg
   xmlns:dc="http://purl.org/dc/elements/1.1/"
   xmlns:cc="http://creativecommons.org/ns#"
   xmlns:rdf="http://www.w3.org/1999/02/22-rdf-syntax-ns#"
   xmlns:svg="http://www.w3.org/2000/svg"
   xmlns="http://www.w3.org/2000/svg"
   xmlns:xlink="http://www.w3.org/1999/xlink"
   xmlns:sodipodi="http://sodipodi.sourceforge.net/DTD/sodipodi-0.dtd"
   xmlns:inkscape="http://www.inkscape.org/namespaces/inkscape"
   version="1.1"
   width="48"
   height="48"
   id="svg4641"
   sodipodi:version="0.32"
   inkscape:version="0.46"
   sodipodi:docname="notification-network-wireless-full.svg"
   inkscape:output_extension="org.inkscape.output.svg.inkscape">
  <metadata
     id="metadata19">
    <rdf:RDF>
      <cc:Work
         rdf:about="">
        <dc:format>image/svg+xml</dc:format>
        <dc:type
           rdf:resource="http://purl.org/dc/dcmitype/StillImage" />
      </cc:Work>
    </rdf:RDF>
  </metadata>
  <sodipodi:namedview
     inkscape:window-height="779"
     inkscape:window-width="1440"
     inkscape:pageshadow="2"
     inkscape:pageopacity="0.0"
     guidetolerance="10.0"
     gridtolerance="10.0"
     objecttolerance="10.0"
     borderopacity="1.0"
     bordercolor="#666666"
     pagecolor="#ffffff"
     id="base"
     showgrid="false"
     inkscape:zoom="3.6681164"
     inkscape:cx="-17.574471"
     inkscape:cy="24"
     inkscape:window-x="0"
     inkscape:window-y="24"
     inkscape:current-layer="svg4641" />
  <defs
     id="defs4643">
    <radialGradient
       cx="-0.1875"
       cy="-0.43750006"
       r="24.1875"
       fx="-0.1875"
       fy="-0.43750006"
       id="radialGradient4437"
       xlink:href="#linearGradient2867-449-88-871-390-598-476-591-434-148-7"
       gradientUnits="userSpaceOnUse"
       gradientTransform="matrix(0,1.6796578,-2.8677383,0,-1.4421357,7.2524358)" />
    <linearGradient
       id="linearGradient2867-449-88-871-390-598-476-591-434-148-7">
      <stop
         id="stop4627-7"
         style="stop-color:#51cfee;stop-opacity:1"
         offset="0" />
      <stop
         id="stop4629-6"
         style="stop-color:#49a3d2;stop-opacity:1"
         offset="0.26238" />
      <stop
         id="stop4631-4"
         style="stop-color:#3470b4;stop-opacity:1"
         offset="0.704952" />
      <stop
         id="stop4633-3"
         style="stop-color:#1b5699;stop-opacity:1"
         offset="1" />
    </linearGradient>
  </defs>
  <g
     id="layer1"
     transform="matrix(0.9973486,0,0,1,6.36336e-2,0)">
    <path
       d="M 28.574733,35.052298 C 28.373902,35.225514 23.941192,39.933943 23.941192,39.933943 C 23.941192,39.933943 19.550691,35.185725 19.385962,35.052298 C 19.680347,34.83113 20.881867,33.96138 23.950763,33.973784 C 26.970491,33.985994 28.344732,34.837915 28.574733,35.052298 z"
       id="path2538"
       style="opacity:0.98000004;fill:#2a65a9;fill-opacity:1;fill-rule:evenodd;stroke:none;overflow:visible" />
    <path
       d="M 19.771867,35.411037 C 19.771867,35.411037 20.65444,34.50512 23.923479,34.50512 C 27.212667,34.50512 28.24082,35.453679 28.24082,35.453679 M 13.857849,29.336821 C 13.857849,29.336821 16.313012,25.982859 23.900542,25.982859 C 31.534839,25.982859 33.921212,29.283604 33.921212,29.283604 M 8.142898,22.810993 C 8.142898,22.810993 13.103857,17.466203 23.878839,17.466203 C 34.708373,17.466203 39.763475,22.862448 39.763475,22.862448 M 2.050198,16.326623 C 2.050198,16.326623 8.985404,8.4690594 23.838312,8.4690594 C 38.766418,8.4690594 45.921645,16.326623 45.921645,16.326623"
       id="path3366"
       style="opacity:0.4;fill:none;stroke:#ffffff;stroke-width:1.00132847;stroke-linecap:butt;stroke-linejoin:miter;stroke-miterlimit:4;stroke-dasharray:none;stroke-opacity:1" />
    <path
       d="M 24,33.5625 C 22.174992,33.5625 20.466775,34.074329 19,34.9375 L 24,39.9375 L 29,34.9375 C 27.533225,34.074329 25.825008,33.5625 24,33.5625 z M 24,24.5625 C 19.680561,24.5625 15.712143,26.027695 12.53125,28.46875 L 16.5,32.4375 C 18.618639,31.028503 21.139863,30.1875 23.875,30.1875 C 26.676299,30.1875 29.257548,31.059174 31.40625,32.53125 L 35.46875,28.46875 C 32.287857,26.027695 28.319439,24.5625 24,24.5625 L 24,24.5625 z M 24,16.0625 C 17.330128,16.0625 11.217799,18.442054 6.46875,22.40625 L 10.03125,25.96875 C 13.862539,22.895853 18.70653,21.0625 24,21.0625 C 29.29347,21.0625 34.137461,22.895853 37.96875,25.96875 L 41.53125,22.40625 C 36.782201,18.442054 30.669872,16.0625 24,16.0625 L 24,16.0625 z M 24,7.5625 C 14.982073,7.5625 6.7404271,10.881034 0.4375,16.375 L 4,19.9375 C 9.3894961,15.345537 16.364658,12.5625 24,12.5625 C 31.635342,12.5625 38.610504,15.345537 44,19.9375 L 47.5625,16.375 C 41.259573,10.881034 33.017927,7.5625 24,7.5625 L 24,7.5625 z"
       id="path4112-19-69-3"
       style="fill:url(#radialGradient4437);fill-opacity:1;stroke:#404040;stroke-width:1.00132835;stroke-linecap:butt;stroke-linejoin:round;marker:none;stroke-miterlimit:4;stroke-dasharray:none;stroke-dashoffset:0.06;stroke-opacity:1;visibility:visible;display:inline;overflow:visible;enable-background:accumulate" />
    <path
       d="M 20.336983,35.583836 C 20.721694,35.117392 22.77013,34.661398 23.97513,34.694655 C 25.180131,34.727915 27.402933,35.101859 27.686525,35.508218"
       id="path4112-19-69-3-3"
       style="opacity:0.4;fill:none;stroke:#ffffff;stroke-width:1.25166035;stroke-linecap:butt;stroke-linejoin:round;marker:none;stroke-miterlimit:4;stroke-dasharray:none;stroke-dashoffset:0.06;stroke-opacity:1;visibility:visible;display:inline;overflow:visible;enable-background:accumulate" />
    <path
       d="M 13.810897,28.980393 C 16.629441,26.809649 20.412271,25.682328 23.999999,25.733291 C 27.550146,25.682861 31.371838,26.747864 34.171835,28.992213"
       id="path4112-19-69-3-3-8"
       style="opacity:0.4;fill:none;stroke:#ffffff;stroke-width:1.25166035;stroke-linecap:butt;stroke-linejoin:round;marker:none;stroke-miterlimit:4;stroke-dasharray:none;stroke-dashoffset:0.06;stroke-opacity:1;visibility:visible;display:inline;overflow:visible;enable-background:accumulate" />
    <path
       d="M 7.6628454,22.852524 C 12.03966,19.441861 17.73446,17.273692 23.325584,17.208435 C 29.33951,16.969821 35.68471,19.153624 40.332076,22.909368"
       id="path4112-19-69-3-3-9"
       style="opacity:0.4;fill:none;stroke:#ffffff;stroke-width:1.25166035;stroke-linecap:butt;stroke-linejoin:round;marker:none;stroke-miterlimit:4;stroke-dasharray:none;stroke-dashoffset:0.06;stroke-opacity:1;visibility:visible;display:inline;overflow:visible;enable-background:accumulate" />
    <path
       d="M 1.6103148,16.854416 C 7.54246,11.931909 15.339742,8.8431478 23.107428,8.7524871 C 31.31633,8.4294115 40.057059,11.477847 46.366702,16.857607"
       id="path4112-19-69-3-3-9-7"
       style="opacity:0.4;fill:none;stroke:#ffffff;stroke-width:1.25166035;stroke-linecap:butt;stroke-linejoin:round;marker:none;stroke-miterlimit:4;stroke-dasharray:none;stroke-dashoffset:0.06;stroke-opacity:1;visibility:visible;display:inline;overflow:visible;enable-background:accumulate" />
  </g>
</svg>
